public/headerImg/watch.svg

<svg width="22" height="22" viewBox="0 0 22 22" fill="none" xmlns="http://www.w3.org/2000/svg">
<g clip-path="url(#clip0_130_68)">
<path fill-rule="evenodd" clip-rule="evenodd" d="M11.0012 0.00231974C8.82386 -0.00795362 6.69249 0.628306 4.87712 1.83048C3.06174 3.03266 1.64407 4.74665 0.803721 6.75529C-0.0366293 8.76392 -0.261837 10.9768 0.156633 13.1136C0.575102 15.2503 1.61842 17.2147 3.15438 18.758C4.69035 20.3012 6.64984 21.3538 8.78458 21.7824C10.9193 22.211 13.1333 21.9962 15.1458 21.1654C17.1584 20.3346 18.8791 18.925 20.0899 17.1153C21.3006 15.3057 21.9469 13.1773 21.947 11C21.9505 8.09114 20.8 5.29966 18.748 3.23793C16.696 1.1762 13.91 0.0125724 11.0012 0.00231974ZM11.0012 20.8402C9.05299 20.8495 7.1459 20.2803 5.52154 19.2047C3.89717 18.1291 2.62864 16.5955 1.87666 14.7983C1.12469 13.001 0.923125 11.021 1.2975 9.10915C1.67188 7.19726 2.60536 5.43952 3.97965 4.05865C5.35394 2.67778 7.1072 1.73593 9.01729 1.35243C10.9274 0.968932 12.9083 1.16105 14.7091 1.90443C16.5099 2.64782 18.0495 3.90902 19.1328 5.52823C20.2162 7.14744 20.7945 9.0518 20.7945 11C20.7977 13.6026 19.7684 16.1002 17.9325 17.9449C16.0965 19.7896 13.6038 20.8311 11.0012 20.8402ZM11.0012 4.8684C11.0772 4.86825 11.1524 4.85309 11.2226 4.82379C11.2927 4.79449 11.3564 4.75162 11.4099 4.69765C11.4635 4.64368 11.5058 4.57967 11.5346 4.5093C11.5633 4.43892 11.5778 4.36356 11.5774 4.28754V2.56005C11.5794 2.48315 11.566 2.40663 11.5379 2.335C11.5099 2.26337 11.4677 2.19808 11.4141 2.14299C11.3604 2.08789 11.2962 2.0441 11.2253 2.0142C11.1544 1.9843 11.0783 1.9689 11.0014 1.9689C10.9244 1.9689 10.8483 1.9843 10.7774 2.0142C10.7065 2.0441 10.6424 2.08789 10.5887 2.14299C10.535 2.19808 10.4929 2.26337 10.4648 2.335C10.4368 2.40663 10.4233 2.48315 10.4253 2.56005V4.28754C10.4249 4.36349 10.4395 4.43878 10.4683 4.50909C10.497 4.5794 10.5393 4.64334 10.5928 4.69727C10.6463 4.75119 10.7099 4.79403 10.78 4.82333C10.8501 4.85263 10.9252 4.8682 11.0012 4.8684ZM10.7096 11.4972C10.7181 11.5022 10.7262 11.5073 10.7347 11.5115C10.7716 11.5314 10.8106 11.547 10.8509 11.558C10.8567 11.558 10.8625 11.5607 10.8687 11.5623C10.9118 11.5728 10.956 11.5784 11.0004 11.5789C11.0436 11.5785 11.0866 11.5733 11.1286 11.5634L11.141 11.5607C11.1812 11.5507 11.2202 11.5361 11.2571 11.5174C11.2641 11.5139 11.2711 11.5108 11.2777 11.5069C11.2842 11.503 11.292 11.5003 11.299 11.4961L17.393 7.80912C17.524 7.7294 17.6181 7.60112 17.6549 7.45227C17.6917 7.30341 17.6681 7.14605 17.5893 7.0145C17.5505 6.94944 17.4992 6.8927 17.4384 6.84754C17.3776 6.80238 17.3085 6.7697 17.235 6.75138C17.1615 6.73306 17.0851 6.72946 17.0102 6.74079C16.9353 6.75212 16.8634 6.77815 16.7986 6.81739L11.0174 10.315L6.27682 7.13222C6.14905 7.04754 5.99289 7.01709 5.84267 7.04755C5.69245 7.07802 5.56049 7.16691 5.47581 7.29467C5.39113 7.42243 5.36067 7.5786 5.39114 7.72882C5.4216 7.87904 5.51049 8.011 5.63826 8.09568L10.6813 11.4821C10.6914 11.4871 10.7003 11.4914 10.7096 11.4968V11.4972ZM4.32279 10.4215H2.60344C2.45254 10.4254 2.30913 10.488 2.20379 10.5962C2.09844 10.7043 2.03948 10.8492 2.03948 11.0002C2.03948 11.1511 2.09844 11.2961 2.20379 11.4042C2.30913 11.5123 2.45254 11.575 2.60344 11.5789H4.32279C4.47633 11.5789 4.62359 11.5179 4.73216 11.4094C4.84073 11.3008 4.90172 11.1535 4.90172 11C4.90172 10.8465 4.84073 10.6992 4.73216 10.5906C4.62359 10.4821 4.47633 10.4211 4.32279 10.4211V10.4215ZM11.0012 17.1324C10.8481 17.1328 10.7015 17.1939 10.5935 17.3024C10.4855 17.4109 10.425 17.5578 10.4253 17.7109V19.4384C10.4233 19.5153 10.4368 19.5918 10.4648 19.6634C10.4929 19.7351 10.535 19.8004 10.5887 19.8555C10.6424 19.9106 10.7065 19.9543 10.7774 19.9842C10.8483 20.0141 10.9244 20.0295 11.0014 20.0295C11.0783 20.0295 11.1544 20.0141 11.2253 19.9842C11.2962 19.9543 11.3604 19.9106 11.4141 19.8555C11.4677 19.8004 11.5099 19.7351 11.5379 19.6634C11.566 19.5918 11.5794 19.5153 11.5774 19.4384V17.7109C11.5776 17.635 11.5628 17.5599 11.534 17.4897C11.5051 17.4196 11.4627 17.3558 11.4092 17.302C11.3557 17.2483 11.2921 17.2056 11.2221 17.1764C11.1521 17.1472 11.077 17.1325 11.0012 17.1324ZM19.3993 10.4215H17.6803C17.5294 10.4254 17.386 10.488 17.2807 10.5962C17.1753 10.7043 17.1164 10.8492 17.1164 11.0002C17.1164 11.1511 17.1753 11.2961 17.2807 11.4042C17.386 11.5123 17.5294 11.575 17.6803 11.5789H19.3993C19.5528 11.5789 19.7001 11.5179 19.8087 11.4094C19.9172 11.3008 19.9782 11.1535 19.9782 11C19.9782 10.8465 19.9172 10.6992 19.8087 10.5906C19.7001 10.4821 19.5528 10.4211 19.3993 10.4211V10.4215Z" fill="#FF5F1E"/>
</g>
<defs>
<clipPath id="clip0_130_68">
<rect width="22" height="22" fill="white"/>
</clipPath>
</defs>
</svg>

<svg width="22" height="22" fill="none" xmlns="http://www.w3.org/2000/svg"><g clip-path="url(#a)"><path fill-rule="evenodd" clip-rule="evenodd" d="M11.001.002A10.998 10.998 0 1 0 21.947 11 10.985 10.985 0 0 0 11.001.002Zm0 20.838A9.84 9.84 0 1 1 20.794 11a9.828 9.828 0 0 1-9.793 9.84Zm0-15.972a.578.578 0 0 0 .576-.58V2.56a.575.575 0 1 0-1.152 0v1.728a.576.576 0 0 0 .576.58Zm-.291 6.63.025.014a.55.55 0 0 0 .116.046c.006 0 .011.003.018.004.043.01.087.016.131.017a.582.582 0 0 0 .129-.016l.012-.002c.04-.01.08-.025.116-.044l.02-.01.022-.01 6.094-3.688a.58.58 0 0 0-.158-1.058.574.574 0 0 0-.436.066l-5.782 3.498-4.74-3.183a.578.578 0 0 0-.639.964l5.043 3.386.029.015Zm-6.387-1.076h-1.72a.578.578 0 0 0 0 1.157h1.72a.58.58 0 0 0 0-1.158ZM11 17.131a.577.577 0 0 0-.576.579v1.727a.577.577 0 1 0 1.152 0v-1.727a.579.579 0 0 0-.576-.579Zm8.398-6.71H17.68a.578.578 0 0 0 0 1.157h1.72a.58.58 0 0 0 0-1.158Z" fill="#FF5F1E"/></g><defs><clipPath id="a"><path fill="#fff" d="M0 0h22v22H0z"/></clipPath></defs></svg>
